X:114
T: Meihua kai de hao
N: C0153
O: China,Liaoning, Xinjin
S: III, 206]
N: neuer Text, 1958); wird mit Ban, Hlzerklapper) begleitet oder per
N: Klatschen imitiert. Wurde im Schattenspiel verwendet. AUFTAKT!
N: Saengerin: Huang Bai, imitiert das Vorspiel.
N: Phrasen 3, 4 der 4., letzten) Strophe:
N: 0_+1_+1_+16  6_6_6_5_  5_53235_  1_1_
N: 1_-6_  2_321_-6_  -5__5__  3_.21_3_  ^_+1__6_  5___ //
N: Wenig Verzierungen. Vorspiel weggelassen.
N: VARIANTE. Die Atmung laesst auf andere Phraseneinteilung shliessen
R: Xiaodiao, Dangu qupai, Dao chashan diao. Xin minge]
M: 2/4
L: 1/16
K: F
z2f2f2dc | d2dcA4 | f2fgf2dc | d2dcA4 |
f2fdf2g2 | e2d2c2A2 | G2G2c2A2 | G8 |
z2f2f2fd | f2fdc3A | c2cAGAc2 | c2F2F2D2 |
G2AGF2D2 | C4c4 | A3GF2A2- | A2A4D2 | C8

@@@ Tune index: 6115
